X:301
T: IHR BRUEDER WENN ICH NICHT MEHR TRINKE
N: B0352
O: Europa, Mitteleuropa, Deutschland
R: Trink - Lied
M: 3/4
L: 1/16
K: F
C4 | A3GF2F2G2A2 | c3BG4
C4 | A3GF2F2G2A2 | G4z4
C4 | A3GF2F2G2A2 | B3df4
e3d | c3dc2A2B2G2 | F4z2
c2B2A2 | G3GG2G2A2B2 | d3cc2
c2B2A2 | G3GG2B2A2G2 | F4z4

@@@ Tune index: 2104
